src/images/svg/markets/exclusive-trade-types-another.svg

<svg width="50" height="50" viewBox="0 0 50 50" fill="none" xmlns="http://www.w3.org/2000/svg">
<rect opacity="0.01" x="1" y="1" width="48" height="48" fill="white" stroke="#979797"/>
<path fill-rule="evenodd" clip-rule="evenodd" d="M34.492 34.8C33.835 34.8 33.303 34.268 33.303 33.611C33.303 32.953 33.835 32.42 34.492 32.42C35.149 32.42 35.681 32.953 35.681 33.611C35.681 34.268 35.149 34.8 34.492 34.8ZM35.681 39.325C35.681 39.983 35.149 40.515 34.492 40.515C33.835 40.515 33.303 39.983 33.303 39.325V37.019C33.303 36.362 33.835 35.828 34.492 35.828C35.149 35.828 35.681 36.362 35.681 37.019V39.325ZM29.811 31.085C29.154 31.085 28.622 30.552 28.622 29.895C28.622 29.238 29.154 28.705 29.811 28.705C30.469 28.705 31.002 29.238 31.002 29.895C31.002 30.552 30.469 31.085 29.811 31.085ZM31.002 39.325C31.002 39.983 30.469 40.515 29.811 40.515C29.154 40.515 28.622 39.983 28.622 39.325V33.568C28.622 32.91 29.154 32.377 29.811 32.377C30.469 32.377 31.002 32.91 31.002 33.568V39.325ZM25.132 29.116C24.474 29.116 23.941 28.583 23.941 27.926C23.941 27.269 24.474 26.737 25.132 26.737C25.789 26.737 26.321 27.269 26.321 27.926C26.321 28.583 25.789 29.116 25.132 29.116ZM26.321 39.325C26.321 39.983 25.789 40.515 25.132 40.515C24.474 40.515 23.941 39.983 23.941 39.325V31.479C23.941 30.821 24.474 30.289 25.132 30.289C25.789 30.289 26.321 30.821 26.321 31.479V39.325ZM20.451 32.781C19.794 32.781 19.261 32.249 19.261 31.592C19.261 30.935 19.794 30.402 20.451 30.402C21.108 30.402 21.64 30.935 21.64 31.592C21.64 32.249 21.108 32.781 20.451 32.781ZM21.64 39.325C21.64 39.983 21.108 40.515 20.451 40.515C19.794 40.515 19.261 39.983 19.261 39.325V35.296C19.261 34.639 19.794 34.107 20.451 34.107C21.108 34.107 21.64 34.639 21.64 35.296V39.325ZM35.667 17H6.333C3.388 17 1 19.388 1 22.334V29.667H6.755V26.005L12.962 30.667L16.066 32.999L12.963 35.33L6.755 39.995V36.33H1V43.667C1 46.613 3.388 49 6.333 49H35.667C38.612 49 41 46.613 41 43.667V22.334C41 19.388 38.612 17 35.667 17Z" fill="#85ACAF"/>
<g style="mix-blend-mode:multiply">
<path fill-rule="evenodd" clip-rule="evenodd" d="M37.2438 1.7755L40.1858 7.7495C40.3888 8.1595 40.7788 8.4445 41.2308 8.5105L47.8098 9.4685C48.9478 9.6335 49.4028 11.0355 48.5788 11.8405L43.8188 16.4905C43.4918 16.8105 43.3428 17.2705 43.4198 17.7215L44.5438 24.2875C44.7378 25.4235 43.5478 26.2905 42.5298 25.7545L36.6448 22.6535C36.2408 22.4415 35.7588 22.4415 35.3538 22.6535L29.4698 25.7545C28.4518 26.2905 27.2618 25.4235 27.4558 24.2875L28.5798 17.7215C28.6568 17.2705 28.5078 16.8105 28.1808 16.4905L23.4208 11.8405C22.5968 11.0355 23.0518 9.6335 24.1888 9.4685L30.7678 8.5105C31.2208 8.4445 31.6108 8.1595 31.8128 7.7495L34.7558 1.7755C35.2648 0.7415 36.7348 0.7415 37.2438 1.7755Z" fill="#FF444F"/>
</g>
</svg>

<svg width="50" height="50" fill="none" xmlns="http://www.w3.org/2000/svg"><path opacity=".01" fill="#fff" stroke="#979797" d="M1 1h48v48H1z"/><path fill-rule="evenodd" clip-rule="evenodd" d="M34.492 34.8a1.19 1.19 0 1 1 .001-2.38 1.19 1.19 0 0 1-.001 2.38Zm1.189 4.525a1.189 1.189 0 1 1-2.378 0v-2.306a1.19 1.19 0 0 1 1.189-1.191 1.19 1.19 0 0 1 1.189 1.191v2.306Zm-5.87-8.24a1.19 1.19 0 1 1 0-2.379 1.19 1.19 0 0 1 0 2.379Zm1.191 8.24a1.19 1.19 0 1 1-2.38 0v-5.757a1.19 1.19 0 1 1 2.38 0v5.757Zm-5.87-10.209a1.19 1.19 0 1 1-.001-2.381 1.19 1.19 0 0 1 .001 2.381Zm1.189 10.209a1.189 1.189 0 1 1-2.38 0v-7.846a1.19 1.19 0 1 1 2.38 0v7.846Zm-5.87-6.544a1.19 1.19 0 1 1-.001-2.379 1.19 1.19 0 0 1 .001 2.379Zm1.189 6.544a1.189 1.189 0 1 1-2.379 0v-4.029a1.19 1.19 0 0 1 2.379 0v4.029ZM35.667 17H6.333A5.334 5.334 0 0 0 1 22.334v7.333h5.755v-3.662l6.207 4.662 3.104 2.332-3.103 2.331-6.208 4.665V36.33H1v7.337A5.333 5.333 0 0 0 6.333 49h29.334A5.333 5.333 0 0 0 41 43.667V22.334A5.334 5.334 0 0 0 35.667 17Z" fill="#85ACAF"/><path fill-rule="evenodd" clip-rule="evenodd" d="m37.244 1.776 2.942 5.974c.203.41.593.694 1.045.76l6.579.959c1.138.165 1.593 1.567.769 2.372l-4.76 4.65c-.327.32-.476.78-.4 1.23l1.125 6.567c.194 1.136-.996 2.003-2.014 1.466l-5.885-3.1a1.39 1.39 0 0 0-1.291 0l-5.884 3.1c-1.018.537-2.208-.33-2.014-1.466l1.124-6.567a1.394 1.394 0 0 0-.4-1.23l-4.76-4.65c-.823-.805-.368-2.207.769-2.372l6.579-.958a1.388 1.388 0 0 0 1.045-.761l2.943-5.974c.509-1.034 1.979-1.034 2.488 0Z" fill="#FF444F" style="mix-blend-mode:multiply"/></svg>
